X: 29
T:South 14
M:4/4
L:1/8
C:Bruce Thomson
R:March
N:Composed by Bruce Thomson
K:Am
|z4 zEEG|:A4AGEG|ABcde4|d4d3c|BAG2-GEEG|
A4AGEG|ABcde4|d2g2edc2|[1A4-AEEG:|[2A8|:a4a3b|age^fg4|
d4d3c|BAG6|a4a3b|age^fg4|d2g2edc2|A8:|

